src/assets/outline/Gemini2.svg

<?xml version="1.0" encoding="UTF-8"?>
<svg width="24" height="24" viewBox="0 0 24 24" xmlns="http://www.w3.org/2000/svg">
 <path d="m12 22.75c-0.41 0-0.75-0.34-0.75-0.75v-19c0-0.41 0.34-0.75 0.75-0.75s0.75 0.34 0.75 0.75v19c0 0.41-0.34 0.75-0.75 0.75z"/>
 <path d="m15.3 6.05c-0.19 0-0.38-0.06997-0.53-0.21997l-2.77-2.77-2.77 2.77c-0.29 0.29-0.77 0.29-1.06 0s-0.29-0.77 0-1.06l3.3-3.3c0.14-0.14 0.33-0.21997 0.53-0.21997s0.39 0.07997 0.53 0.21997l3.3 3.3c0.29 0.29 0.29 0.77 0 1.06-0.14 0.15-0.34 0.21997-0.53 0.21997z"/>
 <path d="m4.9999 7.75c-0.19 0-0.38-0.06997-0.53-0.21997l-1.47-1.47-1.47 1.47c-0.29 0.29-0.77 0.29-1.06 0s-0.29-0.77006 0-1.0601l2-2c0.14-0.14 0.33-0.21997 0.53-0.21997s0.39 0.07997 0.53 0.21997l2 2c0.29 0.29 0.29 0.77006 0 1.0601-0.15 0.15-0.34 0.21997-0.53 0.21997z"/>
 <path d="m23 7.75c-0.19 0-0.38-0.06997-0.53-0.21997l-1.47-1.47-1.47 1.47c-0.29 0.29-0.77 0.29-1.06 0s-0.29-0.77006 0-1.0601l2-2c0.14-0.14 0.33-0.21997 0.53-0.21997s0.39 0.07997 0.53 0.21997l2 2c0.29 0.29 0.29 0.77006 0 1.0601-0.15 0.15-0.34 0.21997-0.53 0.21997z"/>
 <path d="m15 17.749h-6c-4.42 0-6.75-2.33-6.75-6.75v-4.96c0-0.41 0.34-0.75 0.75-0.75s0.75 0.34 0.75 0.75v4.96c0 3.58 1.67 5.25 5.25 5.25h6c3.58 0 5.25-1.67 5.25-5.25v-4.96c0-0.41 0.34-0.75 0.75-0.75s0.75 0.34 0.75 0.75v4.96c0 4.42-2.33 6.75-6.75 6.75z"/>
 <path d="m15 20.75h-6c-0.41 0-0.75-0.34-0.75-0.75s0.34-0.75 0.75-0.75h6c0.41 0 0.75 0.34 0.75 0.75s-0.34 0.75-0.75 0.75z"/>
</svg>

<svg width="24" height="24" viewBox="0 0 24 24"  xmlns="http://www.w3.org/2000/svg">
<path d="M12 22.75C11.59 22.75 11.25 22.41 11.25 22V3C11.25 2.59 11.59 2.25 12 2.25C12.41 2.25 12.75 2.59 12.75 3V22C12.75 22.41 12.41 22.75 12 22.75Z" />
<path d="M15.3001 6.04999C15.1101 6.04999 14.9201 5.98002 14.7701 5.83002L12.0001 3.06L9.23014 5.83002C8.94014 6.12002 8.46014 6.12002 8.17014 5.83002C7.88014 5.54002 7.88014 5.06002 8.17014 4.77002L11.4701 1.46997C11.6101 1.32997 11.8001 1.25 12.0001 1.25C12.2001 1.25 12.3901 1.32997 12.5301 1.46997L15.8301 4.77002C16.1201 5.06002 16.1201 5.54002 15.8301 5.83002C15.6901 5.98002 15.4901 6.04999 15.3001 6.04999Z" />
<path d="M4.99994 7.75C4.80994 7.75 4.61994 7.68003 4.46994 7.53003L2.99994 6.06L1.52994 7.53003C1.23994 7.82003 0.759941 7.82003 0.469941 7.53003C0.179941 7.24003 0.179941 6.75997 0.469941 6.46997L2.46994 4.46997C2.60994 4.32997 2.79994 4.25 2.99994 4.25C3.19994 4.25 3.38994 4.32997 3.52994 4.46997L5.52994 6.46997C5.81994 6.75997 5.81994 7.24003 5.52994 7.53003C5.37994 7.68003 5.18994 7.75 4.99994 7.75Z" />
<path d="M22.9999 7.75C22.8099 7.75 22.6199 7.68003 22.4699 7.53003L20.9999 6.06L19.5299 7.53003C19.2399 7.82003 18.7599 7.82003 18.4699 7.53003C18.1799 7.24003 18.1799 6.75997 18.4699 6.46997L20.4699 4.46997C20.6099 4.32997 20.7999 4.25 20.9999 4.25C21.1999 4.25 21.3899 4.32997 21.5299 4.46997L23.5299 6.46997C23.8199 6.75997 23.8199 7.24003 23.5299 7.53003C23.3799 7.68003 23.1899 7.75 22.9999 7.75Z" />
<path d="M15 17.7491H9C4.58 17.7491 2.25 15.4191 2.25 10.9991V6.03906C2.25 5.62906 2.59 5.28906 3 5.28906C3.41 5.28906 3.75 5.62906 3.75 6.03906V10.9991C3.75 14.5791 5.42 16.2491 9 16.2491H15C18.58 16.2491 20.25 14.5791 20.25 10.9991V6.03906C20.25 5.62906 20.59 5.28906 21 5.28906C21.41 5.28906 21.75 5.62906 21.75 6.03906V10.9991C21.75 15.4191 19.42 17.7491 15 17.7491Z" />
<path d="M15 20.75H9C8.59 20.75 8.25 20.41 8.25 20C8.25 19.59 8.59 19.25 9 19.25H15C15.41 19.25 15.75 19.59 15.75 20C15.75 20.41 15.41 20.75 15 20.75Z" />
</svg>
